brandFactory_export/1.Light/Power_1Light.svg

<?xml version="1.0" encoding="UTF-8"?>
<svg width="24px" height="24px" viewBox="0 0 24 24" version="1.1" xmlns="http://www.w3.org/2000/svg" xmlns:xlink="http://www.w3.org/1999/xlink">
    <title>1.Light/Power_1Light</title>
    <g id="Symbols" stroke="none" stroke-width="1" fill="none" fill-rule="evenodd">
        <g id="1.Light/Power_1Light" fill="#5CB615" fill-rule="nonzero">
            <path d="M11.8285714,0.0268907563 C15.5966387,0.0268907563 18.5176471,1.00168067 20.5142857,2.92773109 C22.5848739,4.92436975 23.6369769,7.92268908 23.6369769,11.8352941 C23.6403361,19.5563025 19.5563025,23.6403361 11.8285714,23.6403361 C4.10756303,23.6403361 0.0235294118,19.5596639 0.0235294118,11.8352941 C0.0235294118,4.11092437 4.10420168,0.0268907563 11.8285714,0.0268907563 Z M11.8285714,0.699159664 C4.44369748,0.699159664 0.695798319,4.44705882 0.695798319,11.8352941 C0.695798319,19.2201681 4.44033613,22.9680672 11.8285714,22.9680672 C19.2201681,22.9680672 22.9647081,19.2235294 22.9647081,11.8352941 C22.9680672,4.44369748 19.2201681,0.699159664 11.8285714,0.699159664 Z M13.7274685,4.74740021 L13.794958,4.75294118 L13.794958,4.75294118 C15.4991597,5.06554622 16.8168067,5.81512605 17.7109244,6.98487395 C18.6252101,8.18151261 19.0890756,9.81512605 19.0890756,11.8420168 C19.0890756,14.2386555 18.4403361,16.0773109 17.1663866,17.307563 C15.9977001,18.4221141 14.3252031,19.0207873 12.1917662,19.0807181 L11.8319328,19.0857143 L11.8319328,19.0857143 C9.52605042,19.0857143 7.73109244,18.4840336 6.50420168,17.3008403 C5.2302521,16.0705882 4.58151261,14.2319328 4.58151261,11.8352941 C4.58151261,9.83865546 5.03193277,8.22184874 5.91932773,7.02857143 C6.78991597,5.86218487 8.07058824,5.10252101 9.73445378,4.77310924 L9.80209428,4.7663209 L9.80209428,4.7663209 L9.86780462,4.7730042 C9.99621849,4.79915966 10.1033613,4.9 10.1310924,5.03865546 C10.1680672,5.22016807 10.0504202,5.39831933 9.86554622,5.43529412 C6.80672269,6.04369748 5.25378151,8.19831933 5.25378151,11.8386555 C5.25378151,16.205042 7.46554622,18.4168067 11.8319328,18.4168067 C16.1983193,18.4168067 18.4134454,16.205042 18.4134454,11.8386555 C18.4134454,8.1512605 16.8168067,5.98655462 13.6739496,5.41176471 C13.492437,5.37815126 13.3714286,5.20336134 13.405042,5.02184874 C13.4344538,4.86302521 13.5719538,4.75052521 13.7274685,4.74740021 Z M11.8319328,2.94117647 C12.0168067,2.94117647 12.1680672,3.09243697 12.1680672,3.27731092 L12.1680672,8.19495798 C12.1680672,8.35672269 12.0522584,8.4927521 11.8994551,8.52423188 L11.8319328,8.53109244 L11.8319328,8.53109244 C11.6470588,8.53109244 11.4957983,8.37983193 11.4957983,8.19495798 L11.4957983,3.27731092 C11.4957983,3.09243697 11.6470588,2.94117647 11.8319328,2.94117647 Z" id="Power_1Light"></path>
        </g>
    </g>
</svg>

<svg width="24" height="24" viewBox="0 0 24 24" xmlns="http://www.w3.org/2000/svg"><path d="M11.829.027c3.768 0 6.689.975 8.685 2.9 2.07 1.997 3.123 4.996 3.123 8.908.003 7.721-4.08 11.805-11.808 11.805C4.108 23.64.024 19.56.024 11.835.024 4.111 4.104.027 11.829.027zm0 .672C4.444.7.696 4.447.696 11.835c0 7.385 3.744 11.133 11.133 11.133 7.391 0 11.136-3.744 11.136-11.133C22.968 4.444 19.22.7 11.829.7zm1.898 4.048l.068.006c1.704.313 3.022 1.062 3.916 2.232.914 1.197 1.378 2.83 1.378 4.857 0 2.397-.649 4.235-1.923 5.466-1.168 1.114-2.84 1.713-4.974 1.773l-.36.005c-2.306 0-4.1-.602-5.328-1.785-1.274-1.23-1.922-3.07-1.922-5.466 0-1.996.45-3.613 1.337-4.806.87-1.167 2.152-1.926 3.815-2.256l.068-.007.066.007a.338.338 0 01-.002.662c-3.06.609-4.612 2.763-4.612 6.404 0 4.366 2.212 6.578 6.578 6.578s6.581-2.212 6.581-6.578c0-3.688-1.596-5.852-4.74-6.427a.335.335 0 01.054-.665zm-1.895-1.806c.185 0 .336.151.336.336v4.918a.337.337 0 01-.269.33l-.067.006a.337.337 0 01-.336-.336V3.277c0-.185.151-.336.336-.336z" fill="#5CB615" fill-rule="nonzero"/></svg>
